!!!COM: Mozart, Wolfgang Amadeus
!!!CDT: 1756/01/27/-1791/12/05/
!!!CNT: German
!!!OTL: Piano Sonata No. 17 in D major
!!!ONB: Piano Sonata No. 18 in Neue Mozart-Ausgabe [1986]
!!!SCT: K 576
!!!OMV: 2
!!!OMD: Adagio
!!!ODT: 1789///
**kern	**kern	**dynam
*staff2	*staff1	*staff1
*clefF4	*clefG2	*clefG2
*k[f#c#g#]	*k[f#c#g#]	*k[f#c#g#]
*A:	*A:	*A:
*M3/4	*M3/4	*M3/4
*MM60	*MM60	*MM60
=1-	=1-	=1-
*^	*	*
[2.e	4A	(8.cc#L	.
.	.	64ddLLL	.
.	.	64cc#	.
.	.	64b	.
.	.	64cc#JJJJ	.
.	4B	8eeL	.
.	.	8dd	.
.	4d	8b	.
.	.	8g#J	.
=2	=2	=2	=2
4e]	4c#	8.aL<	.
.	.	32cc#LL	.
.	.	32aJJJ	.
*clefG2	*clefG2	*	*
2ryy	8r	2ee	.
.	8g#' 8dd'L	.	.
.	8g#' 8dd'	.	.
.	8g#' 8dd'J	.	.
*v	*v	*	*
=3	=3	=3
4a (4cc#	16eeLL)	.
.	(16aa	.
.	16gg#	.
.	16ggnJJ	.
4d 4dd)	16ee#LL	.
.	16ff#	.
.	16een	.
.	16ddJJ	.
4r	16cc#LL	.
.	16b	.
.	16dd	.
.	16ff#JJ	.
*clefF4	*	*
=4	=4	=4
*^	*	*
(4c#	2E	8.aL	>
.	.	32bLL	.
.	.	32aJJJ)	.
4B)	.	16g#LL	.
.	.	(16e	.
.	.	16f#	.
.	.	16g#JJ	.
4r	4r	16aLL	.
.	.	16a#	.
.	.	16b	.
.	.	16b#JJ)	.
*v	*v	*	*
*clefG2	*	*
=5	=5	=5
(4A 4a	(8.cc#L	fp
.	64ddLLL	.
.	64cc#	.
.	64bn	.
.	64cc#JJJJ	.
4B 4g#	8eeL	.
.	8dd	.
4d) 4e	8b	.
.	8g#J	.
=6	=6	=6
4c# 4e	8.aL<	.
.	32cc#LL	.
.	32aJJJ	.
8r	[4ee#)	.
8d (8bL	.	.
8d# 8ccn)	(16ee#LL]	.
.	16ff#	.
8d# 8ccJ	16gg#	.
.	16aaJJ)	.
=7	=7	=7
*^	*	*
4e 4cc#	2ryy	[8aaL	.
.	.	(32aaLL]	.
.	.	32bb	.
.	.	32ccc#	.
.	.	32aaJJJ	.
4r	.	16eenLL	.
.	.	16aa	.
.	.	16cc#	.
.	.	16ff#JJ	.
8r	8r	16eeLL	.
.	.	16dd#	.
*clefF4	*clefF4	*	*
8dn	8E	16ddn	.
.	.	16bJJ)	.
=8	=8	=8	=8
(4d	4.A	(4b	>
8c#)	.	4a)	]
8EL	4.ryy	.	.
8C#	.	4r	.
8AAJ	.	.	.
=9	=9	=9	=9
8r	2E	[8ddL	.
8G# 8BL	.	(32ddLL]	.
.	.	32ff#	.
.	.	32ee	.
.	.	32ff#JJJ	.
8G# (8B	.	32ddLLL	.
.	.	32ee	.
.	.	32cc#	.
.	.	32ddJJJ	.
8A 8c#	.	32bLLL	.
.	.	32cc#	.
.	.	32a	.
.	.	32bJJJ	.
8B 8d)	8E	8g#)	.
8B 8dJ	8r	8r	.
=10	=10	=10	=10
8r	2A	[8eeL	.
8c# 8eL	.	(32eeLL]	.
.	.	32dd#	.
.	.	32ff#	.
.	.	32eeJJJ	.
8c# (8e	.	32aaLLL	.
.	.	32gg#	.
.	.	32bb	.
.	.	32aaJJJ	.
8B 8d	.	32ccc#LLL	.
.	.	32bb	.
.	.	32dddn	.
.	.	32ccc#JJJ	.
8c#)	8AL	8eee)	.
8BJ	8G#J	8r	.
=11	=11	=11	=11
8r	2.F#	[8aaL	.
8A 8c#L	.	(32aaLL]	.
.	.	32ccc#	.
.	.	32bb	.
.	.	32ccc#JJJ	.
8A 8c#	.	32aaLLL	.
.	.	32bb	.
.	.	32gg#	.
.	.	32aaJJJ	.
8A 8c#	.	32ff#LLL	.
.	.	32gg#	.
.	.	32ee	.
.	.	32ff#JJJ	.
8A 8B	.	32dd#LLL	.
.	.	32ee	.
.	.	32ff#	.
.	.	32gg#JJJ	.
8A 8BJ	.	32bbLLL	.
.	.	32aa	.
.	.	32ff#	.
.	.	32dd#JJJ)	.
=12	=12	=12	=12
4A [4B	[4E	[4ff#	.
8B]	8E] 8G#	(16ff#LL]	.
.	.	16dd#	.
8r	8r	16ee	.
.	.	16ee#JJ	.
4r	4r	16gg#LL	.
.	.	16ff#	.
.	.	16een	.
.	.	16ddnJJ)	.
*v	*v	*	*
*clefG2	*	*
=13	=13	=13
4A# 4gn	(8.cc#L	.
.	64ddLLL	.
.	64cc#	.
.	64b	.
.	64cc#JJJJ	.
4B 4f#	8eeL	.
.	8dd	.
4d 4fn	8b	.
.	8g#J	.
=14	=14	=14
4c# 4e	8.aL<	.
.	32cc#LL	.
.	32aJJJ	.
8r	2ggn)	.
(8c# 8a#L	.	.
8d 8b	.	.
8e) 8cc#J	.	.
=15	=15	=15
8d 8dd	(32ee#LLL	.
.	32ff#	.
.	32gg#	.
.	32ff#JJJ	.
8r	32eenLLL	.
.	32dd	.
.	32cc#	.
.	32bJJJ	.
*clefF4	*	*
8E 8c#	16a'LL)	.
.	16cc#'J	.
8r	8.eeJ	.
8E 8d	.	.
.	(16eLL	.
8r	16f#	.
.	16g#JJ)	.
=16	=16	=16
*^	*	*
(4d	4.A	(4b/	.
8c#)	.	8aL)	.
4.ryy	8r	(8a#'	.
.	4r	8b'	.
.	.	8b#'J)	.
*v	*v	*	*
=17	=17	=17
*	*^	*
16F#	4cc#	16F#LL	.
8.ryy	.	16f# 16an	.
.	.	16f# 16a	.
.	.	16f# 16aJJ	.
2ryy	16r	16f# 16aLL	.
.	(16ff#LL	16f# 16a	.
.	16aa)	16f# 16a	.
.	(16ee#JJ	16f# 16aJJ	.
.	16ff#LL)	16f# 16aLL	.
.	(16b#	16f# 16a	.
.	16dd	16f# 16a	.
.	16cc#JJ)	16f# 16aJJ	.
=18	=18	=18	=18
16E#	4cc#	16E#<LL	.
8.r	.	16e# 16g#	.
.	.	16e# 16g#	.
.	.	16e# 16g#JJ	.
2r	16r	16e# 16g#LL	.
.	(16gg#LL	16e# 16g#	.
.	16bbn)	16e# 16g#	.
.	(16ee#JJ	16e# 16g#JJ	.
.	16gg#LL)	16e# 16g#LL	.
.	(16b#	16e# 16g#	.
.	16dd	16e# 16g#	.
.	16cc#JJ)	16e# 16g#JJ	.
*clefG2	*	*	*
*	*v	*v	*
=19	=19	=19
*^	*	*
2cc#	8f#L	16r	.
.	.	16aa	.
.	8enJ	16r	.
.	.	16gg#	.
.	2d	16r	.
.	.	(16ee#LL	.
.	.	16ff#	.
.	.	16gg#JJ	.
4b#	.	16bbLL	.
.	.	16aa	.
.	.	16gg#	.
.	.	[16ff#JJ)	.
=20	=20	=20	=20
8cc#	8c#	(16ff#LL]	.
.	.	16ee#	.
8r	8r	16gg#	.
.	.	16b#JJ	.
*clefF4	*clefF4	*	*
16r	2ryy	8cc#)	.
(16e#LL	.	.	.
16g#	.	8r	.
16c#JJ	.	.	.
16dLL	.	4r	.
16G#	.	.	.
16B	.	.	.
16E#JJ	.	.	.
*v	*v	*	*
=21	=21	=21
*	*^	*
16F#)	4cc#	16F#LL	.
8.ryy	.	16f# 16a	.
.	.	16f# 16a	.
.	.	16f# 16aJJ	.
2ryy	16r	16f# 16aLL	.
.	(16ff#LL	16f# 16a	.
.	16aa)	16f# 16a	.
.	(16ee#JJ	16f# 16aJJ	.
.	16ff#LL)	16f# 16aLL	.
.	(16b#	16f# 16a	.
.	16dd	16f# 16a	.
.	16cc#JJ)	16f# 16aJJ	.
=22	=22	=22	=22
16En	4cc#	16En<LL	.
8.r	.	16en 16gn	.
.	.	16e 16g	.
.	.	16e 16gJJ	.
2r	16r	16e 16gLL	.
.	(16ggnLL	16e 16g	.
.	16bb	16e 16g	.
.	(16eenJJ)	16e 16gJJ	.
.	16ggLL)	16e 16gLL	.
.	(16b	16e 16g	.
.	16dd	16e 16g	.
.	16cc#JJ)	16e 16gJJ	.
*clefG2	*	*	*
*	*v	*v	*
=23	=23	=23
*^	*	*
8aL	4f#	16r	.
.	.	16dd	.
8ccnJ	.	16r	.
.	.	16dd#	.
8b	8gnL	16r	.
.	.	16ee	.
4ddn	8g#	16r	.
.	.	16ffn	.
.	8a	16r	.
.	.	(16ff#LL	.
8gn	8AJ	16aa	.
.	.	16cc#JJ)	.
=24	=24	=24	=24
16f#LL	2d	(32ddnLLL	.
.	.	32ee	.
16a	.	32dd	.
.	.	32cc#JJJ	.
16a	.	32ddLLL	.
.	.	32ee	.
16aJJ	.	32ff#	.
.	.	32ggnJJJ	.
16f#LL	.	32aaLLL	.
.	.	32bb	.
16a	.	32aa	.
.	.	32gg#JJJ	.
16a	.	32aaLLL	.
.	.	32bb	.
16aJJ	.	32ccc#	.
.	.	32dddJJJ	.
16gnLL	4A	32ccc#LLL	.
.	.	32eee	.
16a	.	32ccc#	.
.	.	32aaJJJ	.
16a	.	32ggnLLL	.
.	.	32aa	.
16aJJ	.	32gg	.
.	.	32eeJJJ	.
=25	=25	=25	=25
16f#LL	2d	32ddLLL	.
.	.	32ee	.
16a	.	32dd	.
.	.	32cc#JJJ	.
16a	.	32ddLLL	.
.	.	32ee	.
16aJJ	.	32ff#	.
.	.	32ggnJJJ	.
16f#LL	.	32aaLLL	.
.	.	32bb	.
16a	.	32aa	.
.	.	32gg#JJJ	.
16a	.	32aaLLL	.
.	.	32bb	.
16aJJ	.	32ccc#	.
.	.	32dddJJJ	.
16gnLL	4A	32ccc#LLL	.
.	.	32eee	.
16a	.	32ccc#	.
.	.	32aaJJJ	.
16a	.	32ggnLLL	.
.	.	32aa	.
16aJJ	.	32gg	.
.	.	32eeJJJ	.
*v	*v	*	*
*clefF4	*	*
=26	=26	=26
*	*^	*
32r	4ryy	4dd)	.
(<32DLLL	.	.	.
32E	.	.	.
32F#JJJ	.	.	.
32GnLLL	.	.	.
32A	.	.	.
32B	.	.	.
32c#JJJ	.	.	.
2ryy	4r	32dLLL	.
.	.	32c#	.
.	.	32e	.
.	.	32dJJJ	.
.	.	32f#LLL	.
.	.	32e	.
.	.	32gn	.
.	.	32f#JJJ	.
.	4r	32aLLL	.
.	.	32g#	.
.	.	32ccn	.
.	.	32bJJJ	.
.	.	32aLLL	.
.	.	32gn	.
.	.	32f#	.
.	.	32eJJJ	.
*	*v	*v	*
=27	=27	=27
4d#)	32r	.
.	(32bLLL	.
.	32cc#X	.
.	32dd#JJJ	.
.	32eeLLL	.
.	32ff#	.
.	32gg#X	.
.	32aa#JJJ	.
4r	32bbLLL	.
.	32aan	.
.	32cccn	.
.	32bbJJJ	.
.	32aaLLL	.
.	32ggn	.
.	32ff#	.
.	32eeJJJ	.
4r	32dd#XLLL	.
.	32ee	.
.	32ff#	.
.	32eeJJJ	.
.	32dd#LLL	.
.	32ccn	.
.	32b	.
.	32aJJJ	.
=28	=28	=28
*	*^	*
32r	4gn)	4ryy	.
(<32ELLL	.	.	.
32F#	.	.	.
32GnJJJ	.	.	.
32ALLL	.	.	.
32B	.	.	.
32c#	.	.	.
32d#JJJ	.	.	.
2ryy	4rff	32eLLL	.
.	.	32d#	.
.	.	32f#	.
.	.	32eJJJ	.
.	.	32gnLLL	.
.	.	32f#	.
.	.	32a	.
.	.	32gJJJ	.
.	4r	32bLLL	.
.	.	32a#	.
.	.	32ddn	.
.	.	32cc#JJJ	.
.	.	32bLLL	.
.	.	32an	.
.	.	32g#	.
.	.	32f#JJJ	.
*	*v	*v	*
=29	=29	=29
4e#)	32r	.
.	(32cc#LLL	.
.	32dd#	.
.	32ee#JJJ	.
.	32ff#LLL	.
.	32gg#X	.
.	32aa#	.
.	32bbJJJ	.
4r	32ccc#LLL	.
.	32bbn	.
.	32dddn	.
.	32ccc#JJJ	.
.	32bbLLL	.
.	32aan	.
.	32gg#	.
.	32ff#JJJ	.
4r	32ee#XLLL	.
.	32ff#	.
.	32gg#	.
.	32ff#JJJ	.
.	32ee#LLL	.
.	32ddn	.
.	32cc#	.
.	32bJJJ	.
=30	=30	=30
4F#	32aLLL	.
.	32f#	.
.	32g#	.
.	32aJJJ	.
.	32bLLL	.
.	32cc#	.
.	32dd#	.
.	32ee#JJJ	.
4D# 4B	32ff#LLL	.
.	32gg#	.
.	32ff#	.
.	32ee#JJJ	.
.	32ff#LLL	.
.	32gg#	.
.	32ff#	.
.	32ee#JJJ	.
4Dn 4B#	32ff#LLL	.
.	32gg#	.
.	32aa	.
.	32gg#JJJ	.
.	32bbLLL	.
.	32aa	.
.	32gg#	.
.	32ff#JJJ	.
=31	=31	=31
4C# 4c#	32ee#LLL	.
.	32ff#	.
.	32gg#	.
.	32ff#JJJ	.
.	32ee#LLL	.
.	32dd#	.
.	32cc#	.
.	32b#JJJ	.
4r	32cc#LLL	.
.	32bn	.
.	32ddn	.
.	32cc#JJJ	.
.	32bLLL	.
.	32a	.
.	32g#	.
.	32f#JJJ)	.
(<32e#LLL	4r	.
32d	.	.
32c#	.	.
32B#JJJ	.	.
32c#LLL	.	.
32Bn	.	.
32A	.	.
32G#JJJ	.	.
=32	=32	=32
*	*^	*
16F#)	4cc#	16F#LL	.
8.r	.	16f# 16a	.
.	.	16f# 16a	.
.	.	16f# 16aJJ	.
2r	16r	16f# 16aLL	.
.	(16ff#LL	16f# 16a	.
.	16aa)	16f# 16a	.
.	(16ee#JJ	16f# 16aJJ	.
.	16ff#LL)	16f# 16aLL	.
.	(16b#	16f# 16a	.
.	16dd	16f# 16a	.
.	16cc#JJ)	16f# 16aJJ	.
=33	=33	=33	=33
16E#	4cc#	16E#<LL	.
8.ryy	.	16e# 16g#	.
.	.	16e# 16g#	.
.	.	16e# 16g#JJ	.
2ryy	16r	16e# 16g#LL	.
.	(16gg#LL	16e# 16g#	.
.	16bbn)	16e# 16g#	.
.	(16ee#JJ	16e# 16g#JJ	.
.	16gg#LL)	16e# 16g#LL	.
.	(16b#	16e# 16g#	.
.	16dd	16e# 16g#	.
.	16cc#JJ)	16e# 16g#JJ	.
*clefG2	*	*	*
*	*v	*v	*
=34	=34	=34
*^	*	*
2cc#	8f#L	16r	.
.	.	16aa	.
.	8enJ	16r	.
.	.	16gg#	.
.	2d	16r	.
.	.	(16ee#LL	.
.	.	16ff#	.
.	.	16gg#JJ	.
4b#	.	16bbLL	.
.	.	16aa	.
.	.	16gg#	.
.	.	[16ff#JJ)	.
=35	=35	=35	=35
8cc#	8c#	(16ff#LL]	.
.	.	16ee#	.
8r	8r	16gg#	.
.	.	16bJJ	.
*clefF4	*clefF4	*	*
16r	2ryy	8cc#)	.
(16e#LL	.	.	mf
16g#	.	8r	.
16c#JJ	.	.	.
16dLL	.	4r	.
16G#	.	.	.
16B	.	.	.
16E#JJ)	.	.	.
*v	*v	*	*
=36	=36	=36
*	*^	*
16F#	4cc#	16A<LL	.
8.ryy	.	16f# 16a	.
.	.	16f# 16a	.
.	.	16f# 16aJJ	.
2ryy	16raa	16f# 16aLL	.
.	(16ff#LL	16f# 16a	.
.	16aa)	16f# 16a	.
.	(16ee#JJ	16f# 16aJJ	.
.	16ff#LL)	16f# 16aLL	.
.	(16b#	16f# 16a	.
.	16dd	16f# 16a	.
.	16cc#JJ)	16f# 16aJJ	.
=37	=37	=37	=37
16En	4cc#	16En<LL	.
8.ryy	.	16en 16gn	.
.	.	16e 16g	.
.	.	16e 16gJJ	.
2ryy	16r	16e 16gLL	.
.	(16ggnLL	16e 16g	.
.	16aa#	16e 16g	.
.	16eenJJ)	16e 16gJJ	.
.	(16ggLL	16e 16gLL	.
.	16cc#)	16e 16g	.
.	(16ee	16e 16g	.
.	16a#JJ)	16e 16gJJ	.
*	*v	*v	*
=38	=38	=38
*^	*	*
[4f#	8d#L	16r	.
.	.	16b	.
.	8dnJ	16r	.
.	.	16b#	.
8f#]	8c#	16r	.
.	.	(16cc#LL	.
8r	8r	16ff#	.
.	.	16aJJ	.
(8AL	4C#	16cc#LL	.
.	.	16f#	.
8G#J)	.	16bn	.
.	.	16e#JJ	.
=39	=39	=39	=39
16ALL	2F#	16f#LL	.
16c#	.	32g#L	.
.	.	32aJJJ	.
16c#	.	32bLLL	.
.	.	32cc#	.
16c#JJ	.	32dd#	.
.	.	32ee#JJJ	.
16ALL	.	32ff#LLL	.
.	.	32gg#	.
16c#	.	32aa	.
.	.	32bbJJJ	.
16c#	.	32ccc#LLL	.
.	.	32aa	.
16c#JJ	.	32gg#	.
.	.	32ff#JJJ	.
16BLL	4C#	32ee#LLL	.
.	.	32gg#	.
16c#	.	32ee#	.
.	.	32cc#JJJ	.
16c#	.	32bLLL	.
.	.	32cc#	.
16c#JJ	.	32b	.
.	.	32g#JJJ)	.
=40	=40	=40	=40
16ALL	2F#	(16f#LL	.
16c#	.	32g#L	.
.	.	32aJJJ	.
16c#	.	32bLLL	.
.	.	32cc#	.
16c#JJ	.	32dd#	.
.	.	32ee#JJJ	.
16ALL	.	32ff#LLL	.
.	.	32gg#	.
16c#	.	32aa	.
.	.	32bbJJJ	.
16c#	.	32ccc#LLL	.
.	.	32aa	.
16c#JJ	.	32gg#	.
.	.	32ff#JJJ	.
16BLL	4C#	32ee#LLL	.
.	.	32gg#	.
16c#	.	32ee#	.
.	.	32cc#JJJ	.
16c#	.	32bLLL	.
.	.	32cc#	.
16c#JJ	.	32b	.
.	.	32g#JJJ	.
*v	*v	*	*
=41	=41	=41
32r	4f#)	.
(32FF#LLL	.	.
32GG#	.	.
32AAJJJ	.	.
32BBLLL	.	.
32C#	.	.
32D#	.	.
32E#JJJ	.	.
4F#)	32r	.
.	(>32f#LLL	.
.	32g#	.
.	32aJJJ	.
.	32bLLL	.
.	32cc#	.
.	32dd#	.
.	32ee#JJJ	.
4r	32ff#LLL	.
.	32gg#	.
.	32aa	.
.	32bbJJJ	.
.	32ccc#LLL	.
.	32aa	.
.	32ff#	.
.	32cc#JJJ	.
=42	=42	=42
32r	4ddn)	.
(32FnLLL	.	.
32Gn	.	.
32AJJJ	.	.
32BLLL	.	.
32c#	.	.
32dn	.	.
32eJJJ	.	.
4fn)	32r	.
.	(32aLLL	.
.	32b	.
.	32cc#JJJ	.
.	32ddLLL	.
.	32ee	.
.	32ffn	.
.	32ggnJJJ	.
4r	32aaLLL	.
.	32dd	.
.	32ff	.
.	32aaJJJ	.
.	32dddLLL	.
.	32cccn	.
.	32bb	.
.	32aaJJJ	.
=43	=43	=43
*^	*	*
2B [2d	[2E	32aaLLL	.
.	.	32gg#X	.
.	.	32bb	.
.	.	32aa#JJJ	.
.	.	32ccc#LLL	.
.	.	32bb	.
.	.	32aan	.
.	.	32gg#JJJ	.
.	.	32ff#XLLL	.
.	.	32ee	.
.	.	32ff#	.
.	.	32ee#JJJ	.
.	.	32gg#LLL	.
.	.	32ff#	.
.	.	32een	.
.	.	32ddJJJ	.
4G# 4d]	4E]	32cc#LLL	>
.	.	32b	.
.	.	32dd	.
.	.	32cc#JJJ	.
.	.	32eeLLL	.
.	.	32dd	.
.	.	32cc#	.
.	.	32b#JJJ)	]
=44	=44	=44	=44
[2.e	4A	(8cc#L	.
.	.	32ddLL	.
.	.	32cc#	.
.	.	32bn	.
.	.	32cc#JJJ	.
.	4B	8eeL	.
.	.	8dd	.
.	4d	8b	.
.	.	8g#J	.
=45	=45	=45	=45
4e]	4c#	8.aL<	.
.	.	32cc#LL	.
.	.	32aJJJ	.
*clefG2	*clefG2	*	*
8r	8r	2ee	.
8dd'L	8g#L	.	.
8dd'	8g#	.	.
8dd'J	8g#J	.	.
=46	=46	=46	=46
(4cc#	4a	16eeLL)	.
.	.	(16aa	.
.	.	16gg#	.
.	.	16ggnJJ	.
4dd)	4d	16ee#LL	.
.	.	16ff#	.
.	.	16een	.
.	.	16ddJJ	.
4r	4r	16cc#LL	.
.	.	16b	.
.	.	16dd)	.
.	.	16ff#JJ	.
*v	*v	*	*
*clefF4	*	*
=47	=47	=47
*^	*	*
(4c#	2E	(8.aL	.
.	.	32bLL	.
.	.	32aJJJ	.
4B)	.	16g#LL)	.
.	.	(16e	.
.	.	16f#	.
.	.	16g#JJ	.
4r	4r	16aLL	.
.	.	16a#	.
.	.	16b	.
.	.	16b#JJ)	.
*v	*v	*	*
*clefG2	*	*
=48	=48	=48
(4A 4a	(8cc#L	.
.	32ddLL	.
.	32cc#	.
.	32bn	.
.	32cc#JJJ	.
4B 4g#	8eeL	.
.	8dd	.
4d) 4e	8b	.
.	8g#J	.
=49	=49	=49
4c# 4e	8.aL<	.
.	32cc#LL	.
.	32aJJJ	.
8r	[4ee#)	.
8d (8bL	.	.
8d# 8ccn)	(16ee#LL]	.
.	16ff#	.
8d# 8ccJ	16gg#	.
.	16aaJJ)	.
=50	=50	=50
4e 4cc#X	([8aaL	.
.	32aaLL]	.
.	32bb	.
.	32ccc#	.
.	32aaJJJ	.
4r	16eenLL	.
.	16aa	.
.	16cc#	.
.	16ff#JJ	.
*clefF4	*	*
8r	16eeLL	.
.	16dd#	.
8E 8dn	16ddn	.
.	16bJJ)	.
=51	=51	=51
*^	*	*
(4d	4.A	(4b/	.
8c#)	.	4a)	.
8EL	4.ryy	.	.
8C#	.	4r	.
8AAJ	.	.	.
=52	=52	=52	=52
8r	2E	[8ddL	.
8G# 8BL	.	(32ddLL]	.
.	.	32ff#	.
.	.	32ee	.
.	.	32ff#JJJ	.
8G# (8B	.	32ddLLL	.
.	.	32ee	.
.	.	32cc#	.
.	.	32ddJJJ	.
8A 8c#	.	32bLLL	.
.	.	32cc#	.
.	.	32a	.
.	.	32bJJJ	.
8B 8d)	8E	8g#)	.
8B 8dJ	8r	8r	.
=53	=53	=53	=53
8r	2A	[8eeL	.
8c# 8eL	.	(32eeLL]	.
.	.	32dd#	.
.	.	32ff#	.
.	.	32eeJJJ	.
8c# (8e	.	32aaLLL	.
.	.	32gg#	.
.	.	32bb	.
.	.	32aaJJJ	.
8B 8d	.	32ccc#LLL	.
.	.	32bb	.
.	.	32dddn	.
.	.	32ccc#JJJ)	.
8c#)	8AL	8eee	.
8BJ	8G#J	8r	.
=54	=54	=54	=54
8r	2.F#	[8aaL	.
8A 8c#L	.	(32aaLL]	.
.	.	32ccc#	.
.	.	32aa	.
.	.	32ccc#JJJ	.
8A 8c#	.	32aaLLL	.
.	.	32bb	.
.	.	32gg#	.
.	.	32aaJJJ	.
8A 8c#	.	32ff#LLL	.
.	.	32gg#	.
.	.	32ee	.
.	.	32ff#JJJ	.
8A 8B	.	32dd#LLL	.
.	.	32ee	.
.	.	32ff#	.
.	.	32gg#JJJ	.
8A 8BJ	.	32bbLLL	.
.	.	32aa	.
.	.	32ff#	.
.	.	32dd#JJJ)	.
=55	=55	=55	=55
4A [4B	[4E	[4ff#	.
8G# 8B]	8E]	(16ff#LL]	.
.	.	16dd#	.
4.r	8r	16ee	.
.	.	16ee#JJ	.
.	4r	16gg#LL	.
.	.	16ff#	.
.	.	16een	.
.	.	16ddnJJ)	.
*v	*v	*	*
*clefG2	*	*
=56	=56	=56
(4A# 4gn	(8cc#L	.
.	32ddLL	.
.	32cc#	.
.	32b	.
.	32cc#JJJ	.
4B 4f#	8eeL	.
.	8dd	.
4d) 4fn	8b	.
.	8g#J	.
=57	=57	=57
4c# 4e	8.aL<	.
.	32cc#LL	.
.	32aJJJ	.
8r	2ggn)	.
(8c# 8a#L	.	.
8d 8b	.	.
8e) 8cc#J	.	.
=58	=58	=58
8d 8dd	(32ee#LLL	.
.	32ff#	.
.	32gg#	.
.	32ff#JJJ	.
8r	32eenLLL	.
.	32dd	.
.	32cc#	.
.	32bJJJ	.
*clefF4	*	*
8E 8c#	16a'LL)	.
.	16cc#'J	.
8r	8.eeJ	.
8E 8d	.	.
.	(16eLL	.
8r	16f#	.
.	16g#JJ)	.
=59	=59	=59
16AALL	4a	.
16A 16c#	.	.
16A 16c#	.	.
16A 16c#JJ	.	.
16A 16c#LL	16r	.
16A 16c#	(16aaLL	.
16A 16c#	16ccc#	.
16A 16c#JJ	16eeJJ	.
16A 16dLL	16ee#LL	.
16A 16d	16ff#	.
16A 16d	16aa	.
16A 16dJJ	16ff#JJ	.
=60	=60	=60
16AALL	8dd#L	.
16A 16c#	.	.
16A 16c#	8eenJ)	.
16A 16c#JJ	.	.
16A 16c#LL	16r	.
16A 16c#	(16aaLL	.
16A 16c#	16ccc#	.
16A 16c#JJ	16eeJJ	.
16A 16dLL	16ee#LL	.
16A 16d	16ff#	.
16A 16d	16aa	.
16A 16dJJ	16ff#JJ	.
=61	=61	=61
8A 8c#	32dd#LLL	.
.	32een	.
.	32ff#	.
.	32eeJJJ	.
8r	32ddnLLL	.
.	32cc#	.
.	32b	.
.	32aJJJ	.
8E 8e	8cc#)	.
8r	8r	.
4E 4d	(16.bLLM	.
.	32ak	.
.	16.b	.
.	32cc#JJk	.
=62	=62	=62
16AALL	4a)	.
16A 16c#	.	.
16A 16c#	.	.
16A 16c#JJ	.	.
16A 16c#LL	16r	.
16A 16c#	(16aaLL	.
16A 16c#	16ccc#	.
16A 16c#JJ	16eeJJ	.
16A 16dLL	16ee#LL	.
16A 16d	16ff#	.
16A 16d	16aa	.
16A 16dJJ	16ff#JJ	.
=63	=63	=63
16AALL	8dd#L	.
16A 16c#	.	.
16A 16c#	8eenJ)	.
16A 16c#JJ	.	.
16A 16c#LL	16r	.
16A 16c#	(16aaLL	.
16A 16c#	16ccc#	.
16A 16c#JJ	16eeJJ	.
16A 16dLL	16ee#LL	.
16A 16d	16ff#	.
16A 16d	16aa	.
16A 16dJJ	16ff#JJ	.
=64	=64	=64
8A 8c#	32dd#LLL	.
.	32een	.
.	32ff#	.
.	32eeJJJ	.
8r	32ddnLLL	.
.	32cc#	.
.	32b	.
.	32aJJJ	.
8E 8e	8cc#)	.
8r	8r	.
4E 4d	(16.bLLM	.
.	32ak	.
.	16.b	.
.	32cc#JJk	.
=65	=65	=65
4A 4c#	32a'LLL)	.
.	32e'	.
.	32f#'	.
.	32g#'JJJ	.
.	32a'LLL	.
.	32b'	.
.	32cc#'	.
.	32dd'JJJ	.
4r	32ee'LLL	.
.	32ff#'	.
.	32gg#'	.
.	32aa'JJJ	.
.	32aa#LLL	.
.	32bb	.
.	32bb#	.
.	32ccc#JJJ	.
*clefG2	*	*
8r	(8dddL	.
8e 8dd	8gg#J)	.
=66	=66	=66
4a/ 4cc#/	(32aanLLL	.
.	32ccc#	.
.	32aa)	.
.	32gg#'JJJ	.
.	32ff#LLL	.
.	32ee	.
.	32dd	.
.	32cc#JJJ	.
4r	32b'LLL	.
.	32a'	.
.	32g#'	.
.	32gn'JJJ	.
.	32f#'LLL	.
.	32fn'	.
.	32e'	.
.	32d#'JJJ	.
*clefF4	*	*
8r	(8dnL	.
8EE 8D	8G#J)	.
=67	=67	=67
[4AA (>4D	(4B	.
8AA] 8C#)	8A)	.
8r	8r	.
4r	4r	.
==	==	==
*-	*-	*-
!!!RDF**kern: > = above
!!!RDF**kern: < = below
!!!YOR: Alte Mozart-Ausgabe, Band 20, Breitkopf &amp; H&auml;rtel 1877-1883.
!!!YOY: 1878
!!!YEC: 2018 Craig Stuart Sapp
!!!YEM: Licence: (CC BY-NC-SA 4.0) https://creativecommons.org/licenses/by-nc-sa/4.0
!!!YER: 2018
!!!ENC: Craig Stuart Sapp
!!!END: 2009/10/07
!!!EED: Craig Stuart Sapp
!!!EEV: 2018/06/20
!!!EFL: 68/69
!!!AGN: piano sonata
!!!AFR: 
!!!title: @{OTL}, K 576, mvmt. @{OMV}
